svg/fluentui-system-icons/ic_fluent_arrow_eject_20_regular.svg

<svg width="20" height="20" viewBox="0 0 20 20" fill="none" xmlns="http://www.w3.org/2000/svg">
<path d="M9.5983 5.20022C9.79826 4.9333 10.1985 4.93325 10.3986 5.20012L14.8968 11.2014C15.1438 11.531 14.9086 12.0013 14.4967 12.0013H5.50272C5.09083 12.0013 4.8556 11.5311 5.10256 11.2015L9.5983 5.20022ZM11.1987 4.60035C10.5986 3.79975 9.39784 3.79991 8.79797 4.60067L4.30222 10.6019C3.56136 11.5909 4.26704 13.0013 5.50272 13.0013H14.4967C15.7325 13.0013 16.4382 11.5905 15.6969 10.6016L11.1987 4.60035ZM4 15C3.72386 15 3.5 15.2239 3.5 15.5C3.5 15.7761 3.72386 16 4 16H16C16.2761 16 16.5 15.7761 16.5 15.5C16.5 15.2239 16.2761 15 16 15H4Z" fill="#212121"/>
</svg>

<svg xmlns="http://www.w3.org/2000/svg" width="20" height="20"><path d="M9.598 5.2a.5.5 0 0 1 .8 0l4.499 6.001a.5.5 0 0 1-.4.8H5.503a.5.5 0 0 1-.4-.8l4.495-6Zm1.6-.6c-.6-.8-1.8-.8-2.4 0l-4.496 6.002c-.74.989-.035 2.4 1.2 2.4h8.995c1.236 0 1.941-1.412 1.2-2.4L11.199 4.6ZM4 15a.5.5 0 0 0 0 1h12a.5.5 0 0 0 0-1H4Z"/></svg>
